X: 866
T: Old Nora
N:"Collected by F.O'Neill"
B:O'Neill's 866
Z:Transcribed by Dan G. Petersen, dangp@post6.tele.dk
M:6/8
L:1/8
K:G
D|GAG G2A|B2G d2B|GAG G2B|A2B dcA|
GAG G2A|BAG ABc|d2e fef|A2B cBA:|
ded d2c|B2G d2B|ded d2B|A2B cBA|
ded d2c|BAG ABc|d2e fef|A2B cBA:|
BGG dGG|BAG dBG|AFF cFF|AFA cBA|
BGG dGG|BAG ABc|d2e fef|A2B cBA:|
GBd GBd|GBd dcB|GBd GBd|A2B cBA|
GBd GBd|GBd dcB|GBd fef|A2B cBA:|
GBd gfg|agf g3|GBd g2B|A2B cBA|
GBd gfg|agf g2g/a/|bag agf|A2B cBA:|
dBG GDG|BGB d2B|dBG GDG|A2B cBA|
dBG GDG|BGB dcB|GBd fef|A2B cBA:|


